icons/laptop-check.svg

<svg width="24" height="24" viewBox="0 0 24 24" fill="none" xmlns="http://www.w3.org/2000/svg">
<path fill-rule="evenodd" clip-rule="evenodd" d="M6.49997 4.75C5.31418 4.75 4.34998 5.71421 4.34998 6.89999V16.25H19.65V6.89999C19.65 5.71422 18.6858 4.75 17.5 4.75H6.49997ZM2.84998 6.89999V16.3509C1.93805 16.6393 1.25 17.5104 1.25 18.5C1.25 19.7142 2.28579 20.75 3.5 20.75H20.5C21.7142 20.75 22.75 19.7142 22.75 18.5C22.75 17.5104 22.0619 16.6393 21.15 16.3509V6.89999C21.15 4.88577 19.5142 3.25 17.5 3.25H6.49997C4.48576 3.25 2.84998 4.88578 2.84998 6.89999ZM2.75 18.5C2.75 18.1142 3.11421 17.75 3.5 17.75H20.5C20.8858 17.75 21.25 18.1142 21.25 18.5C21.25 18.8858 20.8858 19.25 20.5 19.25H3.5C3.11421 19.25 2.75 18.8858 2.75 18.5ZM15.122 10.1385C15.4194 9.85017 15.4267 9.37535 15.1383 9.07799C14.85 8.78062 14.3751 8.77332 14.0778 9.06168L11.2154 11.8374L10.3999 10.7501C10.1514 10.4187 9.68129 10.3516 9.34992 10.6001C9.01854 10.8486 8.95138 11.3187 9.19991 11.6501L10.4319 13.2927L10.4696 13.3304C10.6814 13.5423 10.9582 13.6251 11.1874 13.6251C11.3034 13.6251 11.4828 13.6043 11.6601 13.4951C11.7563 13.436 11.8468 13.3521 11.9163 13.2471L15.122 10.1385Z" fill="black"/>
</svg>

<svg xmlns="http://www.w3.org/2000/svg" fill="none" viewBox="0 0 24 24">
  <path fill="#000" fill-rule="evenodd" d="M6.5 4.75c-1.186 0-2.15.964-2.15 2.15v9.35h15.3V6.9c0-1.186-.964-2.15-2.15-2.15h-11ZM2.85 6.9v9.45c-.912.29-1.6 1.16-1.6 2.15 0 1.214 1.036 2.25 2.25 2.25h17c1.214 0 2.25-1.036 2.25-2.25 0-.99-.688-1.86-1.6-2.15V6.9a3.652 3.652 0 0 0-3.65-3.65h-11A3.652 3.652 0 0 0 2.85 6.9Zm-.1 11.6c0-.386.364-.75.75-.75h17c.386 0 .75.364.75.75s-.364.75-.75.75h-17c-.386 0-.75-.364-.75-.75Zm12.372-8.361a.75.75 0 1 0-1.044-1.077l-2.863 2.775-.815-1.087a.75.75 0 1 0-1.2.9l1.232 1.643.038.037c.211.212.488.295.717.295a.9.9 0 0 0 .473-.13.831.831 0 0 0 .256-.248l3.206-3.108Z" clip-rule="evenodd"/>
</svg>
